X:1
T:Title
%%score ( 1 2 ) { 3 | 4 }
L:1/8
Q:1/4=140
M:6/4
K:Ab
V:1 treble nm="Grand Piano, Soprano"
V:2 treble 
V:3 bass nm="Choir Pad, The Shepherd�s Call"
V:4 bass 
V:1
 [CE]2 [CE]4 [CE]2 [CE]2 [EA]2 | [EB]2 [Ec]4 [Ec]2 [Ec]2 [DB]2 | [CA]2 [Ee]4 [Ae]2 [Ae]2 [Ec]2 | %3
w: By~Melody~by~J.~M.~Baldwin * * * *|||
 [EA]2 [GB]4- [GB]4- [GB]3/2 z/ | .c6 z6 | [DF]2 [CE]4 [CE]2 [CE]2 [EA]2 | %6
w: |||
 [FB]2 [Ec]4 [Ec]2 [EB]2 [Ec]2 | [EB]2 [EA]4- [EA]4- [EA]3/2 z/ | .c6 z6 | %9
w: |||
 [=EB]2 [FA]3 [FB] [FA]2 [FA]2 [_EG]2 | [DF]2 [CE]3 [B,E] [B,E]2 [EA]2 [EB]2 | z2 c4- c2 z2 z2 | %12
w: |||
 .c6 z6 | [=EB]2 [FA]3 [FB] [FA]2 [FA]2 [_EG]2 | [DF]2 [CE]3 [B,E] [B,E]2 [B,E]2 [EF]2 | %15
w: |||
 z2 A4- A6- | A6 z6 |] %17
w: ||
V:2
 x12 | x12 | x12 | x12 | G-[GB] [EA]4 [EA]2 [FA]2 [EG]2 | x12 | x12 | x12 | %8
 E-[Ed] [Ee]3 [Af] [Ae]2 [Ae]2 [Ec]2 | x12 | x12 | [Ec]2 E4- E2- [EB]3- [EB-]/B/ | %12
 E-[Ed] [Ee]3 [Af] [Ae]2 [Ae]2 [Ec]2 | x12 | x12 | [EG]2 E4 F2 E4- | E6 z6 |] %17
V:3
 A,2 A,4 A,2 A,2 A,2 | G,2 A,4 A,2 A,4 | A,2[K:treble] C4 C2 A,4 | A,2 E4- E4- E3/2 z/ | %4
 ED C4[K:bass] A,2 A,2 A,2 | A,2 A,4 A,2 A,2 A,2 | A,2 A,4 A,2 G,2 A,2 | D2 C4- C4- C3/2 z/ | %8
 A,B, C3 D C2 C2[K:bass] A,2 | G,2 F,3 A, A,2 A,2 A,2 | A,2 A,3 G, G,2 A,2 G,2 | A,2 A,4 A,2 G,4 | %12
 A,B,[K:treble] C3 D C2 C2 A,2 | G,2 F,3 A, A,2 A,2 A,2 | A,2 A,3 G, G,2 G,2 A,2 | B,2 C4 D2 C4- | %16
 C6 z6 |] %17
V:4
 A,,2 A,,4 A,,2 A,,2 C,2 | .E,6 z6 | z2 A,4 .A,6 | C,2 E,4- E,4- E,3/2 z/ | E,2 A,,4 C,2 D,2 D,2 | %5
 D,2 A,,4 A,,2 A,,2 C,2 | D,2 E,4 E,2 E,2 E,2 | E,2 A,,4- A,,4- A,,3/2 z/ | z2 A,3 A, A,2 .A,4 | %9
 C,2 D,3 D, D,2 D,2 D,2 | D,2 E,3 E, E,2 C,2 B,,2 | A,,2 E,4 E,2 E,4 | z2 A,3 A, A,2 .A,4 | %13
 C,2 D,3 D, D,2 D,2 D,2 | D,2 E,3 E, E,2 E,2 E,2 | E,2 A,,4- A,,6- | A,,6 z6 |] %17

